X:1
T:Mestertyven Arve Brakars halling
T:Mestertyven Arve Brakars halling
L:1/8
M:2/4
K:D
V:1 treble nm="Piano" snm="Pno."
V:1
 uA2 |: df/a/ ge/f/ | df/^g/ a>(f | d)f/a/ ge/f/ | df/^g/ a>(f | d)f/a/ ge/f/ | de/c/ AB/c/ | %7
 df/a/ ge/f/ |1[M:3/4] dc d3 uA :|2[M:3/4] dc d4 ::3[M:2/4] vE>(G F)(F/D/ || E)(E/G/ F)(F/D/ | %12
[M:3/4] E)(E/G/ F)F/D/ E2 |[M:2/4] vE>(G F)(F/D/ | E)(E/G/ F)(F/D/ |[M:3/4] E)(E/G/ F)(F/D/ E>)uA | %16
[M:2/4] c(c/e/ A)(d/B/ | c)(c/e/ A)(d/B/ | c)(c/A/ B)(B/^G/ | E)^G A>A | vc(c/e/ A)(d/B/ | %21
 c)(c/e/ A)(d/B/ | c)(c/A/ B)(B/^G/ |1 E)^G A2 :|2[M:3/4] E^G A2 A2 |[M:2/4] vg(e/f/) de/f/ | %26
 (^g a2) (A | g)(e/f/) de/f/ | (^g a2) (A | g)(e/f/) de/c/ | AB/c/ d(e/f/) | g(e/f/) de/c/ | %32
 Ac d2 | vg(e/f/) de/c/ | AB/c/ d(e/f/) | g(e/f/) de/c/ | Ac d2 | vE>(G F)(F/D/ | E)(E/G/ F)(F/D/ | %39
[M:3/4] E)(E/G/ F)F/D/ E2 |[M:2/4] vE>(G F)(F/D/ | E)(E/G/ F)(F/D/ |[M:3/4] E)(E/G/ F)(F/D/ E>)uA | %43
[M:2/4] c(c/e/ A)(d/B/ | c)(c/e/ A)(d/B/ | c)(c/A/ B)(B/^G/ | E)^G A>A | vc(c/e/ A)(d/B/ | %48
 c)(c/e/ A)(d/B/ | c)(c/A/ B)(B/^G/ |[M:3/4] E)^G A2 (AB/c/) |[M:2/4] df/a/ ge/f/ | df/^g/ a>(f | %53
 d)f/a/ ge/f/ | df/^g/ a>(f | d)f/a/ ge/f/ | de/c/ AB/c/ | df/a/ ge/f/ | d=c d2 |] %59

